.local/share/icons/Gruvbox-Plus-Dark/apps/16/kspaceduel.svg

<svg width="16" height="16" version="1.1" xmlns="http://www.w3.org/2000/svg">
  <defs>
    <style id="current-color-scheme" type="text/css">.ColorScheme-Text { color:#ebdbb2; } .ColorScheme-Highlight { color:#458588; }</style>
  </defs>
  <path class="ColorScheme-Text" d="m8.003 2.237c-1.704 0-3.711 0.802-4.913 2.771-0.427 0.781-0.671 1.691-0.671 2.692 0 1.18 0.398 2.074 0.411 2.081 0.592 0.963 3.118 0.939 5.943-0.62 2.885-1.577 4.064-3.696 3.512-4.593-0.3095-0.4642-1.704-2.314-4.282-2.331zm3.202 0.22c-0.059 7e-3 -0.12 0.011-0.181 0.02 1.245 0.7945 2.306 1.893 1.952 3.232-0.356 1.34-1.884 2.914-3.893 4.012-1.637 0.903-3.25 1.361-4.522 1.361-2.297 0-2.684-1.253-2.772-3.612-1.656 1.811-2.21 3.574-1.461 4.822 0.553 0.917 1.737 1.371 3.262 1.371 0.8607 0 3.359-0.179 6.624-1.991 0.7753-0.4394 4.868-2.882 5.673-5.913 0.6118-2.342-1.359-3.777-4.682-3.302zm2.041 7.894c-0.849 0.708-1.76 1.338-2.722 1.882-1.114 0.618-2.266 1.11-3.382 1.46 2.188 0.3419 4.919-0.6675 6.104-3.342z" fill="currentColor"/>
</svg>

<svg xmlns="http://www.w3.org/2000/svg" style="isolation:isolate" width="16" height="16" viewBox="0 0 16 16">
 <defs>
  <style id="current-color-scheme" type="text/css">
   .ColorScheme-Text { color:#ebdbb2; } .ColorScheme-Highlight { color:#458588; }
  </style>
  <linearGradient id="arrongin" x1="0%" x2="0%" y1="0%" y2="100%">
   <stop offset="0%" style="stop-color:#d79921; stop-opacity:1"/>
   <stop offset="100%" style="stop-color:#b57614; stop-opacity:1"/>
  </linearGradient>
  <linearGradient id="aurora" x1="0%" x2="0%" y1="0%" y2="100%">
   <stop offset="0%" style="stop-color:#83a598; stop-opacity:1"/>
   <stop offset="100%" style="stop-color:#b16286; stop-opacity:1"/>
  </linearGradient>
  <linearGradient id="fitdance" x1="0%" x2="0%" y1="0%" y2="100%">
   <stop offset="0%" style="stop-color:#8ec07c; stop-opacity:1"/>
   <stop offset="100%" style="stop-color:#458588; stop-opacity:1"/>
  </linearGradient>
  <linearGradient id="oomox" x1="0%" x2="0%" y1="0%" y2="100%">
   <stop offset="0%" style="stop-color:#458588; stop-opacity:1"/>
   <stop offset="100%" style="stop-color:#928374; stop-opacity:1"/>
  </linearGradient>
  <linearGradient id="rainblue" x1="0%" x2="0%" y1="0%" y2="100%">
   <stop offset="0%" style="stop-color:#b8bb26; stop-opacity:1"/>
   <stop offset="100%" style="stop-color:#076678; stop-opacity:1"/>
  </linearGradient>
  <linearGradient id="sunrise" x1="0%" x2="0%" y1="0%" y2="100%">
   <stop offset="0%" style="stop-color: #fe8019; stop-opacity:1"/>
   <stop offset="100%" style="stop-color: #fabd2f; stop-opacity:1"/>
  </linearGradient>
  <linearGradient id="telinkrin" x1="0%" x2="0%" y1="0%" y2="100%">
   <stop offset="0%" style="stop-color: #83a598; stop-opacity:1"/>
   <stop offset="100%" style="stop-color: #83a598; stop-opacity:1"/>
  </linearGradient>
  <linearGradient id="60spsycho" x1="0%" x2="0%" y1="0%" y2="100%">
   <stop offset="0%" style="stop-color: #fb4934; stop-opacity:1"/>
   <stop offset="25%" style="stop-color: #fabd2f; stop-opacity:1"/>
   <stop offset="50%" style="stop-color: #fe8019; stop-opacity:1"/>
   <stop offset="100%" style="stop-color: #689d6a; stop-opacity:1"/>
  </linearGradient>
  <linearGradient id="90ssummer" x1="0%" x2="0%" y1="0%" y2="100%">
   <stop offset="0%" style="stop-color: #b16286; stop-opacity:1"/>
   <stop offset="20%" style="stop-color: #8ec07c; stop-opacity:1"/>
   <stop offset="50%" style="stop-color: #fabd2f; stop-opacity:1"/>
   <stop offset="100%" style="stop-color: #458588; stop-opacity:1"/>
  </linearGradient>
  <linearGradient id="cyberneon" x1="0%" x2="0%" y1="0%" y2="100%">
    <stop offset="0" style="stop-color:#83a598; stop-opacity:1"/>
    <stop offset="1" style="stop-color:#b16286; stop-opacity:1"/>
  </linearGradient>
 </defs>
 <path style="fill:currentColor" class="ColorScheme-Text" d="M 8.003 2.237 C 7.827 2.237 7.654 2.243 7.482 2.257 C 5.62 2.424 4.017 3.49 3.09 5.008 C 2.663 5.789 2.419 6.699 2.419 7.7 C 2.419 8.382 2.548 9.051 2.79 9.711 C 2.812 9.751 2.828 9.78 2.83 9.781 C 3.422 10.744 5.948 10.72 8.773 9.161 C 10.637 8.142 12.043 6.718 12.355 5.538 C 12.457 5.154 12.442 4.823 12.285 4.568 C 12.281 4.562 12.233 4.482 12.145 4.358 C 11.191 3.175 9.959 2.387 8.453 2.256 C 8.303 2.244 8.153 2.238 8.003 2.237 L 8.003 2.237 Z M 12.405 2.367 C 12.249 2.367 12.089 2.377 11.925 2.387 C 11.871 2.39 11.81 2.393 11.755 2.397 C 11.636 2.405 11.518 2.412 11.395 2.427 C 11.332 2.434 11.268 2.448 11.205 2.457 C 11.146 2.464 11.085 2.468 11.024 2.477 C 11.646 2.874 12.208 3.393 12.696 4.008 C 12.692 4.01 12.688 4.015 12.685 4.018 C 12.781 4.154 12.831 4.249 12.836 4.258 C 13.078 4.651 13.122 5.157 12.976 5.709 C 12.62 7.049 11.092 8.623 9.083 9.721 C 7.446 10.624 5.833 11.082 4.561 11.082 C 3.504 11.082 2.687 10.769 2.289 10.121 L 2.269 10.071 C 2.267 10.07 2.262 10.073 2.259 10.071 C 2.245 10.033 2.233 9.99 2.219 9.951 C 2.202 9.906 2.192 9.875 2.189 9.871 C 2.191 9.87 2.188 9.863 2.189 9.861 C 1.937 9.154 1.779 8.43 1.779 7.7 C 1.779 7.622 1.787 7.546 1.789 7.47 C 0.133 9.281 -0.421 11.044 0.328 12.292 C 0.881 13.209 2.065 13.663 3.59 13.663 C 3.799 13.663 4.019 13.651 4.24 13.633 C 4.312 13.628 4.388 13.621 4.461 13.613 C 4.888 13.568 5.312 13.498 5.731 13.403 C 5.789 13.39 5.853 13.387 5.911 13.373 C 7.266 13.058 8.742 12.489 10.214 11.672 C 11.546 10.917 12.713 10.045 13.646 9.141 C 13.781 9.009 13.911 8.883 14.036 8.751 C 14.061 8.724 14.081 8.697 14.106 8.67 C 14.207 8.56 14.311 8.45 14.406 8.34 C 14.439 8.303 14.465 8.268 14.496 8.23 C 14.579 8.131 14.66 8.03 14.736 7.93 C 14.77 7.886 14.804 7.843 14.837 7.8 C 14.905 7.707 14.973 7.612 15.037 7.52 C 15.069 7.472 15.095 7.427 15.127 7.379 C 15.184 7.291 15.244 7.198 15.297 7.11 C 15.327 7.059 15.349 7.008 15.377 6.959 C 15.426 6.872 15.473 6.786 15.517 6.699 C 15.541 6.65 15.564 6.598 15.587 6.549 C 15.629 6.458 15.671 6.37 15.707 6.279 C 15.725 6.236 15.741 6.193 15.757 6.149 C 15.806 6.018 15.853 5.887 15.887 5.759 C 16.09 4.982 16.02 4.305 15.677 3.737 C 15.614 3.635 15.544 3.539 15.467 3.447 C 15.446 3.421 15.419 3.402 15.397 3.377 C 15.334 3.309 15.268 3.246 15.197 3.187 C 15.173 3.167 15.15 3.146 15.127 3.127 C 15.032 3.05 14.931 2.98 14.826 2.917 C 14.806 2.904 14.788 2.898 14.766 2.887 C 14.672 2.832 14.575 2.782 14.476 2.737 C 14.44 2.721 14.404 2.712 14.366 2.697 C 14.261 2.656 14.154 2.619 14.046 2.587 C 14.021 2.579 13.991 2.565 13.966 2.557 C 13.828 2.519 13.683 2.484 13.536 2.457 C 13.497 2.449 13.456 2.453 13.416 2.447 C 13.299 2.428 13.179 2.408 13.055 2.397 C 13.009 2.392 12.963 2.39 12.915 2.387 C 12.749 2.374 12.582 2.368 12.415 2.367 L 12.405 2.367 L 12.405 2.367 Z M 13.246 10.351 C 12.397 11.059 11.486 11.689 10.524 12.233 C 9.41 12.851 8.258 13.343 7.142 13.693 C 7.43 13.738 7.719 13.763 8.003 13.763 C 10.323 13.763 12.344 12.387 13.246 10.351 Z"/>
</svg>
